src/assets/img/providers/barbarabang.svg

<svg width="49" height="36" viewBox="0 0 49 36" fill="none" xmlns="http://www.w3.org/2000/svg">
<path fill-rule="evenodd" clip-rule="evenodd" d="M9.46954 0.000976562H3.05366C1.75377 0.000976562 0.700012 1.05891 0.700012 2.36394V8.80535C0.700012 10.1104 1.75377 11.1683 3.05366 11.1683H9.46954C10.7694 11.1683 11.8231 10.1104 11.8231 8.80535V2.36394C11.8231 1.05891 10.7694 0.000976562 9.46954 0.000976562ZM7.7779 5.38305L7.78582 5.37826L7.78584 5.37825C7.91635 5.29974 8.6014 4.88765 8.59308 4.05717C8.58624 3.44891 8.32758 2.97735 7.78809 2.64759C7.31328 2.35714 6.63598 2.28197 5.81399 2.28197C4.58528 2.28197 3.89602 2.44768 3.89602 2.44768V8.76777C3.89602 8.76777 4.35722 8.88225 5.52639 8.88225C6.19178 8.88225 7.13631 8.85831 7.65705 8.63107C8.31736 8.34232 8.87388 7.82464 8.87388 6.91564C8.87388 5.76539 7.95934 5.4479 7.7962 5.39126L7.79619 5.39126L7.79364 5.39037C7.7869 5.38802 7.78162 5.38618 7.7779 5.38474V5.38305ZM4.95795 3.2422C5.05392 3.23547 5.13723 3.2291 5.21319 3.22326L5.21382 3.22322C5.44745 3.20528 5.61219 3.19263 5.86504 3.19263C6.31263 3.19263 7.50729 3.19605 7.50729 4.0828C7.50729 4.96959 6.31601 5.0174 6.05735 5.0174H4.95968V3.24389L4.95795 3.2422ZM5.75441 7.94423C5.37663 7.94423 4.95795 7.9186 4.95795 7.9186V5.94861H6.05562C6.34326 5.94861 7.75918 5.94861 7.75918 6.89858C7.75918 7.91007 6.35856 7.94592 5.75441 7.94592V7.94423ZM15.4208 0.000976562H21.8367C23.1366 0.000976562 24.1904 1.05891 24.1904 2.36394V8.80535C24.1904 10.1104 23.1366 11.1683 21.8367 11.1683H15.4208C14.1209 11.1683 13.0672 10.1104 13.0672 8.80535V2.36394C13.0672 1.05891 14.1209 0.000976562 15.4208 0.000976562ZM21.5883 8.88225H20.4496L19.7281 6.83021H17.5277L16.8061 8.88225H15.6675L18.1131 2.28197H19.1427L21.5883 8.88225ZM18.6168 3.72741L17.851 5.9093H19.4031L18.6373 3.72741C18.6373 3.72741 18.6338 3.7206 18.627 3.7206C18.6202 3.7206 18.6168 3.72741 18.6168 3.72741ZM27.7879 0.000976562H34.2038C35.5037 0.000976562 36.5575 1.05891 36.5575 2.36394V8.80535C36.5575 10.1104 35.5037 11.1683 34.2038 11.1683H27.7879C26.4883 11.1683 25.4345 10.1104 25.4345 8.80535V2.36394C25.4345 1.05891 26.4883 0.000976562 27.7879 0.000976562ZM32.3609 5.77772C32.7847 5.9913 32.9906 6.46971 33.2372 7.44019H33.239C33.3682 7.94765 33.5947 8.54737 33.8431 8.88225H32.6349C32.4596 8.66866 32.245 7.99719 32.1295 7.43678C32.051 7.05575 31.9541 6.72257 31.7651 6.49876C31.5779 6.27664 31.2478 6.16216 30.8515 6.16216H29.7502V8.88225H28.6882V2.42205C28.9895 2.37935 29.8982 2.28197 30.6707 2.28197C31.0574 2.28197 31.7176 2.28197 32.3491 2.56216C32.9395 2.82528 33.428 3.30711 33.428 4.1597C33.428 5.27372 32.5802 5.67692 32.3609 5.77772ZM29.7484 5.24466H30.9433C31.1985 5.24466 32.3473 5.17972 32.3473 4.25708C32.3473 3.23482 31.0523 3.23522 30.5959 3.23536H30.5807C30.2387 3.23536 30.0256 3.26585 29.8373 3.29289C29.8071 3.29721 29.7776 3.30142 29.7484 3.30542V5.24466ZM34.2038 24.8336H27.7879C26.4883 24.8336 25.4345 25.8915 25.4345 27.1966V33.6379C25.4345 34.9429 26.4883 36.001 27.7879 36.001H34.2038C35.5037 36.001 36.5575 34.9429 36.5575 33.6379V27.1966C36.5575 25.8915 35.5037 24.8336 34.2038 24.8336ZM32.3555 27.118V31.7704L29.6411 27.118H28.5795V33.7182H29.6411V29.0658L32.3555 33.7182H33.4175V27.118H32.3555ZM40.1722 24.8336H46.5881C47.8881 24.8336 48.9418 25.8915 48.9418 27.1966V33.6379C48.9418 34.9429 47.8881 36.001 46.5881 36.001H40.1722C38.8723 36.001 37.8185 34.9429 37.8185 33.6379V27.1966C37.8185 25.8915 38.8723 24.8336 40.1722 24.8336ZM43.6966 31.0716V30.1285H46.1115V33.2758C45.5859 33.5577 44.9084 33.72 44.0559 33.72C41.4758 33.72 40.4955 32.2369 40.4955 30.419C40.4955 28.601 41.8315 27.118 44.0559 27.118C44.7979 27.118 45.3865 27.2034 45.9653 27.5058L45.6367 28.4079C45.2029 28.1773 44.6686 28.0508 44.0559 28.0508C42.5479 28.0508 41.6425 29.1136 41.6425 30.4172C41.6425 31.7209 42.3081 32.7837 44.0559 32.7837C44.4371 32.7837 44.7673 32.7325 45.0495 32.64V31.0716H43.6966ZM27.7879 12.4171H34.2038C35.5037 12.4171 36.5575 13.4751 36.5575 14.7801V21.2215C36.5575 22.5265 35.5037 23.5845 34.2038 23.5845H27.7879C26.4883 23.5845 25.4345 22.5265 25.4345 21.2215V14.7801C25.4345 13.4751 26.4883 12.4171 27.7879 12.4171ZM32.3609 18.1939C32.7847 18.4075 32.9906 18.8859 33.2372 19.8563L33.239 19.8581C33.3682 20.3655 33.5947 20.9652 33.8431 21.3001H32.6349C32.4596 21.0865 32.245 20.4151 32.1295 19.8546C32.051 19.4736 31.9541 19.1404 31.7651 18.9166C31.5779 18.6945 31.2478 18.58 30.8515 18.58H29.7502V21.3001H28.6882V14.8382C28.9895 14.7955 29.8982 14.6981 30.6707 14.6981C31.0574 14.6981 31.7176 14.6981 32.3491 14.9783C32.9395 15.2415 33.428 15.7233 33.428 16.5759C33.428 17.6899 32.5802 18.0931 32.3609 18.1939ZM29.7484 17.6608H30.9433C31.1985 17.6608 32.3473 17.5959 32.3473 16.6732C32.3473 15.651 31.0523 15.6513 30.5959 15.6515H30.5807C30.2387 15.6515 30.0256 15.682 29.8373 15.709C29.8071 15.7133 29.7776 15.7176 29.7484 15.7216V17.6608ZM21.8367 12.4171H15.4208C14.1209 12.4171 13.0672 13.4751 13.0672 14.7801V21.2215C13.0672 22.5265 14.1209 23.5845 15.4208 23.5845H21.8367C23.1366 23.5845 24.1904 22.5265 24.1904 21.2215V14.7801C24.1904 13.4751 23.1366 12.4171 21.8367 12.4171ZM20.4496 21.2984H21.5883L19.1427 14.6981H18.1131L15.6675 21.2984H16.8061L17.5277 19.2464H19.7281L20.4496 21.2984ZM17.851 18.3254L18.6168 16.1436C18.6168 16.1436 18.6202 16.1367 18.627 16.1367C18.6338 16.1367 18.6373 16.1436 18.6373 16.1436L19.4031 18.3254H17.851ZM40.1722 12.4171H46.5881C47.8881 12.4171 48.9418 13.4751 48.9418 14.7801V21.2215C48.9418 22.5265 47.8881 23.5845 46.5881 23.5845H40.1722C38.8723 23.5845 37.8185 22.5265 37.8185 21.2215V14.7801C37.8185 13.4751 38.8723 12.4171 40.1722 12.4171ZM46.3397 21.2984H45.2011L44.4796 19.2464H42.2789L41.5575 21.2984H40.4188L42.8647 14.6981H43.8943L46.3397 21.2984ZM43.3683 16.1436L42.6026 18.3254H44.1545L43.3888 16.1436C43.3888 16.1436 43.3852 16.1367 43.3784 16.1367C43.3715 16.1367 43.3683 16.1436 43.3683 16.1436ZM9.46954 12.4171H3.05366C1.75377 12.4171 0.700012 13.4751 0.700012 14.7801V21.2215C0.700012 22.5265 1.75377 23.5845 3.05366 23.5845H9.46954C10.7694 23.5845 11.8231 22.5265 11.8231 21.2215V14.7801C11.8231 13.4751 10.7694 12.4171 9.46954 12.4171ZM7.7779 17.7992L7.78582 17.7944C7.91628 17.716 8.6014 17.3038 8.59308 16.4733C8.58624 15.8651 8.32758 15.3935 7.78809 15.0638C7.31328 14.7733 6.63598 14.6981 5.81399 14.6981C4.58528 14.6981 3.89602 14.8639 3.89602 14.8639V21.1856C3.89602 21.1856 4.35722 21.3001 5.52639 21.3001C6.19178 21.3001 7.13631 21.2762 7.65705 21.0489C8.31736 20.7602 8.87388 20.2425 8.87388 19.3335C8.87388 18.1832 7.9593 17.8657 7.79619 17.8091C7.78823 17.8063 7.78207 17.8042 7.7779 17.8026V17.7992ZM5.20889 15.6397L5.21319 15.6394C5.44715 15.6214 5.61196 15.6088 5.86504 15.6088C6.31263 15.6088 7.50729 15.6122 7.50729 16.499C7.50729 17.3857 6.31601 17.4336 6.05735 17.4336H4.95968V15.6601L4.95795 15.6583C5.05198 15.6518 5.13384 15.6455 5.20856 15.6398L5.20889 15.6397ZM5.75441 20.3604C5.37663 20.3604 4.95795 20.3347 4.95795 20.3347V18.3647H6.05562C6.34326 18.3647 7.75918 18.3647 7.75918 19.3147C7.75918 20.3262 6.35856 20.3621 5.75441 20.3621V20.3604ZM15.4208 24.8336H21.8367C23.1366 24.8336 24.1904 25.8915 24.1904 27.1966V33.6379C24.1904 34.9429 23.1366 36.001 21.8367 36.001H15.4208C14.1209 36.001 13.0672 34.9429 13.0672 33.6379V27.1966C13.0672 25.8915 14.1209 24.8336 15.4208 24.8336ZM21.5883 33.715H20.4496L19.7281 31.6628H17.5277L16.8061 33.715H15.6675L18.1131 27.1146H19.1427L21.5883 33.715ZM18.6168 28.56L17.851 30.7419H19.4031L18.6373 28.56C18.6373 28.56 18.6338 28.5532 18.627 28.5532C18.6202 28.5532 18.6168 28.56 18.6168 28.56ZM9.46954 24.8336H3.05366C1.75377 24.8336 0.700012 25.8915 0.700012 27.1966V33.6379C0.700012 34.9429 1.75377 36.001 3.05366 36.001H9.46954C10.7694 36.001 11.8231 34.9429 11.8231 33.6379V27.1966C11.8231 25.8915 10.7694 24.8336 9.46954 24.8336ZM7.7779 30.2174L7.78582 30.2126C7.91628 30.1341 8.6014 29.722 8.59308 28.8915C8.58624 28.2833 8.32758 27.8117 7.78809 27.4819C7.31328 27.1914 6.63598 27.1163 5.81399 27.1163C4.58528 27.1163 3.89602 27.282 3.89602 27.282V33.6037C3.89602 33.6037 4.35722 33.7182 5.52639 33.7182C6.19178 33.7182 7.13631 33.6945 7.65705 33.4673C8.31736 33.1782 8.87388 32.6605 8.87388 31.7517C8.87388 30.6014 7.9593 30.2839 7.79619 30.2273C7.78823 30.2245 7.78207 30.2224 7.7779 30.2208V30.2174ZM5.2083 28.0579L5.21322 28.0576C5.44715 28.0396 5.612 28.027 5.86504 28.027C6.31263 28.027 7.50729 28.0304 7.50729 28.9171C7.50729 29.8039 6.31601 29.8517 6.05735 29.8517H4.95968V28.0782L4.95795 28.0765C5.05186 28.07 5.13363 28.0637 5.2083 28.0579ZM5.75441 32.7786C5.37663 32.7786 4.95795 32.7531 4.95795 32.7531V30.7829H6.05562C6.34326 30.7829 7.75918 30.7829 7.75918 31.7329C7.75918 32.7444 6.35856 32.7804 5.75441 32.7804V32.7786Z" fill="#919EAB"/>
</svg>

<svg width="49" height="36" fill="none" xmlns="http://www.w3.org/2000/svg"><path fill-rule="evenodd" clip-rule="evenodd" d="M9.47.001H3.054A2.358 2.358 0 0 0 .7 2.364v6.441a2.358 2.358 0 0 0 2.354 2.363H9.47c1.3 0 2.353-1.058 2.353-2.363V2.364A2.358 2.358 0 0 0 9.47 0ZM7.778 5.383l.008-.005c.13-.078.815-.49.807-1.32-.007-.61-.265-1.08-.805-1.41-.475-.29-1.152-.366-1.974-.366-1.229 0-1.918.166-1.918.166v6.32s.461.114 1.63.114c.666 0 1.61-.024 2.131-.25.66-.29 1.217-.807 1.217-1.716 0-1.15-.915-1.468-1.078-1.525h-.002l-.016-.006v-.002Zm-2.82-2.14.255-.02c.234-.018.4-.03.652-.03.448 0 1.642.003 1.642.89s-1.191.934-1.45.934H4.96V3.244l-.002-.002Zm.796 4.701c-.377 0-.796-.025-.796-.025v-1.97h1.098c.287 0 1.703 0 1.703.95 0 1.011-1.4 1.047-2.005 1.047v-.002ZM15.421.001h6.416c1.3 0 2.353 1.058 2.353 2.363v6.441a2.358 2.358 0 0 1-2.353 2.363H15.42a2.358 2.358 0 0 1-2.354-2.363V2.364A2.358 2.358 0 0 1 15.421 0Zm6.167 8.881H20.45l-.722-2.052h-2.2l-.722 2.052h-1.139l2.446-6.6h1.03l2.445 6.6Zm-2.971-5.155L17.85 5.91h1.552l-.766-2.182s-.003-.006-.01-.006-.01.006-.01.006Zm9.17-3.726h6.417c1.3 0 2.353 1.058 2.353 2.363v6.441a2.358 2.358 0 0 1-2.353 2.363h-6.416a2.358 2.358 0 0 1-2.354-2.363V2.364A2.358 2.358 0 0 1 27.788 0Zm4.574 5.777c.424.213.63.692.876 1.662h.002c.13.508.356 1.107.604 1.442h-1.208c-.175-.213-.39-.885-.505-1.445-.079-.381-.176-.714-.365-.938-.187-.222-.517-.337-.913-.337H29.75v2.72h-1.062v-6.46c.302-.043 1.21-.14 1.983-.14.386 0 1.047 0 1.678.28.59.263 1.079.745 1.079 1.598 0 1.114-.848 1.517-1.067 1.618Zm-2.613-.533h1.195c.255 0 1.404-.065 1.404-.988 0-1.022-1.295-1.022-1.751-1.022h-.015a4.671 4.671 0 0 0-.833.07v1.94Zm4.456 19.589h-6.416a2.358 2.358 0 0 0-2.354 2.363v6.44a2.358 2.358 0 0 0 2.354 2.364h6.416c1.3 0 2.353-1.058 2.353-2.363v-6.441a2.358 2.358 0 0 0-2.353-2.363Zm-1.849 2.284v4.652l-2.714-4.652H28.58v6.6h1.061v-4.652l2.715 4.652h1.061v-6.6h-1.062Zm7.817-2.284h6.416c1.3 0 2.354 1.058 2.354 2.363v6.44a2.358 2.358 0 0 1-2.354 2.364h-6.416a2.358 2.358 0 0 1-2.353-2.363v-6.441a2.358 2.358 0 0 1 2.353-2.363Zm3.525 6.238v-.944h2.414v3.148c-.525.282-1.203.444-2.055.444-2.58 0-3.56-1.483-3.56-3.301s1.335-3.301 3.56-3.301c.742 0 1.33.085 1.91.388l-.33.902c-.433-.23-.967-.357-1.58-.357-1.508 0-2.413 1.063-2.413 2.366 0 1.304.665 2.367 2.413 2.367.381 0 .711-.051.994-.144v-1.568h-1.353Zm-15.91-18.655h6.417c1.3 0 2.353 1.058 2.353 2.363v6.441a2.358 2.358 0 0 1-2.353 2.363h-6.416a2.358 2.358 0 0 1-2.354-2.363v-6.44a2.358 2.358 0 0 1 2.354-2.364Zm4.574 5.777c.424.213.63.692.876 1.662l.002.002c.13.508.356 1.107.604 1.442h-1.208c-.175-.213-.39-.885-.505-1.445-.079-.381-.176-.715-.365-.938-.187-.223-.517-.337-.913-.337H29.75v2.72h-1.062v-6.462c.302-.042 1.21-.14 1.983-.14.386 0 1.047 0 1.678.28.59.264 1.079.745 1.079 1.598 0 1.114-.848 1.517-1.067 1.618Zm-2.613-.533h1.195c.255 0 1.404-.065 1.404-.988 0-1.022-1.295-1.022-1.751-1.021h-.015c-.342 0-.555.03-.744.057l-.089.013v1.939Zm-7.911-5.244H15.42a2.358 2.358 0 0 0-2.354 2.363v6.441a2.358 2.358 0 0 0 2.354 2.363h6.416c1.3 0 2.353-1.058 2.353-2.363v-6.44a2.358 2.358 0 0 0-2.353-2.364Zm-1.387 8.881h1.138l-2.445-6.6h-1.03l-2.445 6.6h1.138l.722-2.052h2.2l.722 2.052Zm-2.599-2.973.766-2.181s.003-.007.01-.007.01.007.01.007l.766 2.181h-1.552Zm22.321-5.908h6.416c1.3 0 2.354 1.058 2.354 2.363v6.441a2.358 2.358 0 0 1-2.354 2.363h-6.416a2.358 2.358 0 0 1-2.353-2.363v-6.44a2.358 2.358 0 0 1 2.353-2.364Zm6.168 8.881H45.2l-.721-2.052h-2.201l-.722 2.052H40.42l2.446-6.6h1.03l2.445 6.6Zm-2.972-5.154-.765 2.181h1.551l-.765-2.181s-.004-.007-.01-.007c-.008 0-.01.007-.01.007ZM9.47 12.417H3.054A2.358 2.358 0 0 0 .7 14.78v6.441a2.358 2.358 0 0 0 2.354 2.363H9.47c1.3 0 2.353-1.058 2.353-2.363v-6.44a2.358 2.358 0 0 0-2.353-2.364ZM7.778 17.8l.008-.005c.13-.078.815-.49.807-1.32-.007-.609-.265-1.08-.805-1.41-.475-.29-1.152-.366-1.974-.366-1.229 0-1.918.166-1.918.166v6.322s.461.114 1.63.114c.666 0 1.61-.024 2.131-.251.66-.289 1.217-.806 1.217-1.715 0-1.15-.915-1.468-1.078-1.525l-.018-.006v-.004Zm-2.57-2.16h.005a7.52 7.52 0 0 1 .652-.03c.448 0 1.642.003 1.642.89s-1.191.935-1.45.935H4.96V15.66l-.002-.002.25-.018Zm.546 4.721c-.377 0-.796-.025-.796-.025v-1.97h1.098c.287 0 1.703 0 1.703.95 0 1.011-1.4 1.047-2.005 1.047v-.002Zm9.667 4.474h6.416c1.3 0 2.353 1.058 2.353 2.363v6.44a2.358 2.358 0 0 1-2.353 2.364H15.42a2.358 2.358 0 0 1-2.354-2.363v-6.441a2.358 2.358 0 0 1 2.354-2.363Zm6.167 8.881H20.45l-.722-2.052h-2.2l-.722 2.052h-1.139l2.446-6.6h1.03l2.445 6.6Zm-2.971-5.155-.766 2.182h1.552l-.766-2.182s-.003-.007-.01-.007-.01.007-.01.007ZM9.47 24.834H3.054A2.358 2.358 0 0 0 .7 27.197v6.44a2.358 2.358 0 0 0 2.354 2.364H9.47c1.3 0 2.353-1.058 2.353-2.363v-6.441a2.358 2.358 0 0 0-2.353-2.363Zm-1.692 5.383.008-.004c.13-.079.815-.491.807-1.322-.007-.608-.265-1.08-.805-1.41-.475-.29-1.152-.365-1.974-.365-1.229 0-1.918.166-1.918.166v6.322s.461.114 1.63.114c.666 0 1.61-.024 2.131-.25.66-.29 1.217-.808 1.217-1.716 0-1.15-.915-1.468-1.078-1.525l-.018-.006v-.004Zm-2.57-2.16h.005a7.52 7.52 0 0 1 .652-.03c.448 0 1.642.003 1.642.89s-1.191.935-1.45.935H4.96v-1.774l-.002-.002.25-.018Zm.546 4.722c-.377 0-.796-.026-.796-.026v-1.97h1.098c.287 0 1.703 0 1.703.95 0 1.011-1.4 1.047-2.005 1.047v-.001Z" fill="#919EAB"/></svg>
